public/icons/icon-btn-hamburger.svg

<svg width="46" height="46" viewBox="0 0 46 46" fill="none" xmlns="http://www.w3.org/2000/svg">
<path d="M20.3139 11C15.161 11 10.9961 14.7968 10.9961 19.4707V19.5909C11.5163 19.5839 11.8835 19.5234 12.1884 19.4351C12.4727 19.3527 12.7169 19.2427 13.0071 19.1028C13.217 15.6024 16.4032 12.8182 20.3139 12.8182H26.8379C30.7391 12.8182 33.9351 15.6036 34.1538 19.1051C34.4416 19.2442 34.6839 19.3535 34.9664 19.4355C35.2718 19.5241 35.6408 19.5846 36.1658 19.591V19.4707V19.4687C36.1545 14.796 31.9805 11 26.8379 11H20.3139ZM34.5054 22.8699C34.2737 22.8225 34.0451 22.7657 33.8191 22.7001C33.2307 22.5294 32.6786 22.2772 32.1652 22.0427C32.0107 21.9721 31.8595 21.9031 31.712 21.8384C31.2589 21.6396 30.7885 21.4994 29.9245 21.4994C29.2775 21.4994 28.7194 21.621 28.1513 21.8458C27.9603 21.9214 27.7691 22.0124 27.5493 22.1175L27.5361 22.1239C27.3242 22.2253 27.0891 22.3378 26.8298 22.4447C26.3592 22.6387 25.8177 22.8141 25.1494 22.9245H34.5054V22.8699ZM12.1306 24.6364L19.3126 26.1003C22.1105 26.6707 25.0213 26.6706 27.8192 26.1003L35.0013 24.6364H35.2459C36.219 24.6364 37.0709 25.42 37.0709 26.4545C37.0709 27.4891 36.219 28.2727 35.2459 28.2727H11.8959C10.9229 28.2727 10.0709 27.4891 10.0709 26.4545C10.0709 25.42 10.9229 24.6364 11.8959 24.6364H12.1306ZM22.0128 22.9245H12.6364V22.8931C13.6503 22.7016 14.3538 22.3627 14.9573 22.069L14.9764 22.0596C15.3348 21.8852 15.6115 21.7518 15.9428 21.6558C16.2673 21.5618 16.6624 21.4994 17.2374 21.4994C17.8116 21.4994 18.2056 21.5616 18.5288 21.6554C18.8587 21.7509 19.1342 21.884 19.4914 22.0582L19.5126 22.0685C20.1512 22.3797 20.9011 22.7408 22.0128 22.9245Z" fill="#1E1E1E"/>
<path d="M26.7778 14.4287C26.7778 14.8161 26.4323 15.1302 26.0061 15.1302C25.58 15.1302 25.2345 14.8161 25.2345 14.4287C25.2345 14.0412 25.58 13.7272 26.0061 13.7272C26.4323 13.7272 26.7778 14.0412 26.7778 14.4287ZM21.1357 15.1302C21.5619 15.1302 21.9074 14.8161 21.9074 14.4287C21.9074 14.0413 21.5619 13.7272 21.1357 13.7272C20.7095 13.7272 20.3641 14.0413 20.3641 14.4287C20.3641 14.8161 20.7095 15.1302 21.1357 15.1302ZM29.4636 16.3965C29.4636 16.7839 29.1181 17.098 28.6919 17.098C28.2657 17.098 27.9203 16.7839 27.9203 16.3965C27.9203 16.0091 28.2657 15.695 28.6919 15.695C29.1181 15.695 29.4636 16.0091 29.4636 16.3965ZM18.45 17.098C18.8761 17.098 19.2216 16.784 19.2216 16.3965C19.2216 16.0091 18.8761 15.695 18.45 15.695C18.0238 15.695 17.6783 16.0091 17.6783 16.3965C17.6783 16.784 18.0238 17.098 18.45 17.098ZM23.5709 17.8997C23.9971 17.8997 24.3426 17.5856 24.3426 17.1982C24.3426 16.8108 23.9971 16.4967 23.5709 16.4967C23.1448 16.4967 22.7993 16.8108 22.7993 17.1982C22.7993 17.5856 23.1448 17.8997 23.5709 17.8997ZM11.1365 30.2506V29.0827C11.377 29.1472 11.6315 29.1817 11.8959 29.1817H13.1365V30.2506C13.1365 31.2478 13.926 31.909 14.712 31.909H32.4098C33.197 31.909 33.9969 31.2462 34.0054 30.2375V29.1817H35.2459C35.5103 29.1817 35.7648 29.1472 36.0054 29.0827V30.2464C35.9924 32.0934 34.4681 33.7272 32.4098 33.7272H14.712C12.6519 33.7272 11.1365 32.0906 11.1365 30.2506ZM17.2374 18.9544C15.4383 18.9544 14.4897 19.4126 13.6459 19.8233L13.6115 19.84C13.2674 20.0075 12.9174 20.1779 12.492 20.3012C12.0537 20.4281 11.554 20.5005 10.8938 20.5005C10.4021 20.5005 10 20.8649 10 21.3184C10 21.7719 10.4021 22.1363 10.8938 22.1363C12.6929 22.1363 13.6414 21.6781 14.4853 21.2674L14.5197 21.2507C14.8638 21.0832 15.2138 20.9128 15.6392 20.7895C16.0775 20.6626 16.5771 20.5902 17.2374 20.5902C17.8967 20.5902 18.3953 20.6624 18.8326 20.7891C19.2569 20.9121 19.6058 21.0822 19.9488 21.2494L19.9852 21.2672C20.8288 21.6784 21.7772 22.1363 23.5809 22.1363C24.8871 22.1363 25.741 21.8953 26.4167 21.6167C26.6491 21.5209 26.862 21.419 27.0794 21.315L27.0835 21.313C27.2979 21.2104 27.5216 21.1034 27.7522 21.0122C28.4307 20.7436 29.1242 20.5902 29.9245 20.5902C30.9453 20.5902 31.5637 20.7638 32.1466 21.0195C32.3259 21.0982 32.4971 21.1763 32.6635 21.2522C33.1609 21.4791 33.6165 21.6869 34.1232 21.834C34.8016 22.0309 35.5019 22.1363 36.2581 22.1363C36.7498 22.1363 37.1519 21.7719 37.1519 21.3184C37.1519 20.8649 36.7498 20.5005 36.2581 20.5005C35.5984 20.5005 35.0996 20.4283 34.6623 20.3014C34.238 20.1784 33.8894 20.0081 33.5471 19.8409L33.512 19.8238C33.057 19.6016 32.5946 19.3784 31.9968 19.212C31.4558 19.0614 30.7918 18.9544 29.9245 18.9544C29.0572 18.9544 28.3932 19.0614 27.8521 19.212C27.3716 19.3457 26.9418 19.5309 26.4799 19.73C26.2932 19.8104 26.1012 19.8931 25.8986 19.9756C25.2198 20.2519 24.4685 20.5005 23.5809 20.5005C22.918 20.5005 22.4168 20.428 21.978 20.301C21.5519 20.1776 21.2023 20.0072 20.8593 19.84L20.8256 19.8235C19.983 19.4128 19.0368 18.9544 17.2374 18.9544ZM12.7633 23.8335H34.3686L27.6004 25.2131C24.9466 25.7542 22.1852 25.7542 19.5314 25.2131L12.7633 23.8335Z" fill="#1E1E1E"/>
</svg>

<svg xmlns="http://www.w3.org/2000/svg" width="46" height="46" fill="none" viewBox="0 0 46 46"><path fill="#1e1e1e" d="M20.314 11c-5.153 0-9.318 3.797-9.318 8.47v.12c.52-.006.887-.067 1.192-.155.285-.082.529-.192.82-.332.209-3.5 3.395-6.285 7.306-6.285h6.524c3.901 0 7.097 2.786 7.316 6.287.288.14.53.248.812.33.306.09.675.15 1.2.156v-.122C36.155 14.796 31.98 11 26.838 11zm14.191 11.87a9 9 0 0 1-.686-.17c-.588-.17-1.14-.423-1.654-.657l-.453-.205c-.453-.198-.924-.339-1.788-.339-.646 0-1.205.122-1.773.347a10 10 0 0 0-.602.271l-.013.007a14 14 0 0 1-.706.32c-.47.195-1.012.37-1.68.48h9.355zm-22.374 1.766 7.182 1.464c2.797.57 5.708.57 8.506 0l7.182-1.464h.245c.973 0 1.825.784 1.825 1.819a1.824 1.824 0 0 1-1.825 1.818h-23.35a1.824 1.824 0 0 1-1.825-1.819c0-1.034.852-1.818 1.825-1.818zm9.882-1.712h-9.377v-.03c1.014-.192 1.718-.531 2.321-.825l.02-.01c.358-.174.634-.307.966-.403.324-.094.72-.157 1.294-.157s.969.063 1.292.156c.33.096.605.229.962.403l.022.01c.638.312 1.388.673 2.5.856"/><path fill="#1e1e1e" d="M26.778 14.429c0 .387-.346.701-.772.701s-.771-.314-.771-.701c0-.388.345-.702.771-.702s.772.314.772.702m-5.642.701c.426 0 .771-.314.771-.701 0-.388-.345-.702-.771-.702s-.772.314-.772.702.345.701.772.701m8.328 1.266c0 .388-.346.702-.772.702s-.772-.314-.772-.701c0-.388.346-.702.772-.702s.772.314.772.701m-11.014.702c.426 0 .772-.314.772-.701 0-.388-.346-.702-.772-.702s-.772.314-.772.701c0 .388.346.702.772.702m5.12.802c.427 0 .773-.314.773-.702s-.346-.701-.772-.701-.772.314-.772.701c0 .388.346.702.772.702M11.138 30.25v-1.167q.361.098.759.099h1.24v1.069c0 .997.79 1.658 1.576 1.658H32.41c.787 0 1.587-.663 1.595-1.671v-1.056h1.24q.399-.001.76-.1v1.164c-.013 1.847-1.537 3.481-3.595 3.481H14.712c-2.06 0-3.575-1.636-3.575-3.476m6.1-11.296c-1.799 0-2.747.459-3.591.87l-.035.016c-.344.168-.694.338-1.119.461-.438.127-.938.2-1.598.2-.492 0-.894.364-.894.817 0 .454.402.818.894.818 1.799 0 2.747-.458 3.591-.869l.035-.016c.344-.168.694-.338 1.12-.462.438-.126.937-.199 1.597-.199s1.158.072 1.596.2c.424.122.773.292 1.116.46l.036.017c.844.411 1.792.87 3.596.87 1.306 0 2.16-.242 2.836-.52.232-.096.445-.198.662-.302l.005-.002c.214-.103.438-.21.668-.3a5.7 5.7 0 0 1 2.172-.423c1.021 0 1.64.174 2.223.43q.267.117.517.232c.497.227.953.435 1.46.582a7.6 7.6 0 0 0 2.134.302c.492 0 .894-.364.894-.818s-.402-.818-.894-.818c-.66 0-1.158-.072-1.596-.199-.424-.123-.773-.293-1.115-.46l-.035-.017c-.455-.222-.917-.446-1.515-.612-.541-.15-1.205-.258-2.073-.258s-1.53.107-2.072.258c-.48.134-.91.319-1.372.518q-.28.12-.581.246c-.68.276-1.43.524-2.318.524-.663 0-1.164-.072-1.603-.199-.426-.123-.776-.294-1.119-.461l-.033-.017c-.843-.41-1.79-.869-3.589-.869m-4.474 4.88H34.37l-6.769 1.38a20.3 20.3 0 0 1-8.069 0z"/></svg>
